X: 33060
T: Priest In His Boots, The
R: jig
M: 6/8
K: Dmajor
efe e2 g|fdf ecA|d3 fdd|eAA Bcd|
efe e2 g|fdf ecA|d3 faf|1 gec d3:|2 gec d2||
|:f|a2 f g2 e|{a}f2 d ecA|d3 fdd|eAA Bcd|
a2 f g2 e|{a}f2 d ecA|d3 faf|gec d2:|

